icons/svg/seamark/beacon_pile.svg

<?xml version="1.0" encoding="UTF-8" standalone="no"?>
<svg
   xmlns:dc="http://purl.org/dc/elements/1.1/"
   xmlns:cc="http://creativecommons.org/ns#"
   xmlns:rdf="http://www.w3.org/1999/02/22-rdf-syntax-ns#"
   xmlns:svg="http://www.w3.org/2000/svg"
   xmlns="http://www.w3.org/2000/svg"
   xmlns:sodipodi="http://sodipodi.sourceforge.net/DTD/sodipodi-0.dtd"
   xmlns:inkscape="http://www.inkscape.org/namespaces/inkscape"
   width="580"
   height="580"
   id="svg2"
   version="1.1"
   inkscape:version="0.48.4 r9939"
   sodipodi:docname="beacon_pile.svg">
  <defs
     id="defs13">
    <inkscape:path-effect
       effect="gears"
       id="path-effect3774"
       is_visible="true"
       teeth="6"
       phi="-1.2" />
    <inkscape:path-effect
       effect="bend_path"
       id="path-effect3772"
       is_visible="false"
       bendpath="m 95.790098,316.51174 c 144.429032,-206.42506 223.313032,-11.7428 339.548092,0"
       prop_scale="1.19"
       scale_y_rel="false"
       vertical="false"
       bendpath-nodetypes="cc" />
  </defs>
  <sodipodi:namedview
     pagecolor="#ffffff"
     bordercolor="#666666"
     borderopacity="1"
     objecttolerance="10"
     gridtolerance="10"
     guidetolerance="10"
     inkscape:pageopacity="0"
     inkscape:pageshadow="2"
     inkscape:window-width="1920"
     inkscape:window-height="1004"
     id="namedview11"
     showgrid="false"
     inkscape:zoom="1.6275861"
     inkscape:cx="379.00187"
     inkscape:cy="250.12734"
     inkscape:window-x="1680"
     inkscape:window-y="0"
     inkscape:window-maximized="1"
     inkscape:current-layer="svg2" />
  <metadata
     id="metadata2975">image/svg+xmlen<rdf:RDF>
  <cc:Work
     rdf:about="">
    <dc:format>image/svg+xml</dc:format>
    <dc:type
       rdf:resource="http://purl.org/dc/dcmitype/StillImage" />
    <dc:title />
  </cc:Work>
</rdf:RDF>
</metadata>
  <path
     style="font-size:medium;font-style:normal;font-variant:normal;font-weight:normal;font-stretch:normal;text-indent:0;text-align:start;text-decoration:none;line-height:normal;letter-spacing:normal;word-spacing:normal;text-transform:none;direction:ltr;block-progression:tb;writing-mode:lr-tb;text-anchor:start;baseline-shift:baseline;opacity:0.42608696;color:#000000;fill:#acd8f3;fill-opacity:1;fill-rule:nonzero;stroke:#a35151;stroke-width:0;stroke-linecap:round;stroke-linejoin:miter;stroke-miterlimit:4;stroke-opacity:1;stroke-dashoffset:0;marker:none;visibility:visible;display:inline;overflow:visible;enable-background:accumulate;font-family:Sans;-inkscape-font-specification:Sans"
     d="m 226.96875,198.3125 c 1.3067,-1.3e-4 -12.67596,2.81261 -11.46875,2.3125 1.20721,-0.50011 -10.64273,7.42398 -9.71875,6.5 0.92398,-0.92398 -7.00011,10.92596 -6.5,9.71875 0.50011,-1.20721 -2.31263,12.77545 -2.3125,11.46875 l 0,255.6875 -7.34375,0 c -5.23694,-0.003 -10.44295,2.15091 -14.14602,5.85398 -3.70307,3.70307 -5.85745,8.90908 -5.85398,14.14602 l 0,25 c -0.003,5.23694 2.15091,10.44295 5.85398,14.14602 3.70307,3.70307 8.90908,5.85745 14.14602,5.85398 l 38.96875,0 c 11.212,18.63781 31.45942,31.21875 54.59375,31.21875 23.13433,0 43.40346,-12.57536 54.625,-31.21875 l 38.9375,0 c 5.23694,0.003 10.44295,-2.15091 14.14602,-5.85398 3.70307,-3.70307 5.85745,-8.90908 5.85398,-14.14602 l 0,-25 c 0.003,-5.23694 -2.15091,-10.44295 -5.85398,-14.14602 C 387.19295,486.15091 381.98694,483.99653 376.75,484 l -7.34375,0 0,-255.6875 c 1.3e-4,1.3067 -2.81261,-12.67596 -2.3125,-11.46875 0.50011,1.20721 -7.42398,-10.64273 -6.5,-9.71875 0.92398,0.92398 -10.92596,-7.00011 -9.71875,-6.5 1.20721,0.50011 -12.77545,-2.31263 -11.46875,-2.3125 z"
     id="path3811"
     inkscape:connector-curvature="0"
     sodipodi:nodetypes="cssscccsccsccsccsccscccssscc" />
  <rect
     style="color:#000000;fill:#bdbdbd;fill-opacity:1;fill-rule:nonzero;stroke:#a35151;stroke-width:0;stroke-linecap:round;stroke-linejoin:miter;stroke-miterlimit:4;stroke-opacity:1;stroke-dasharray:none;stroke-dashoffset:0;marker:none;visibility:visible;display:inline;overflow:visible;enable-background:accumulate"
     id="rect2987"
     width="93.189789"
     height="275.97549"
     x="236.55867"
     y="236.99234" />
  <path
     style="fill:none;stroke:#000000;stroke-width:25;stroke-linecap:butt;stroke-linejoin:miter;stroke-miterlimit:4;stroke-opacity:1;stroke-dasharray:none"
     d="m 189.63633,516.57012 187.12226,0"
     id="path3759"
     inkscape:connector-curvature="0"
     sodipodi:nodetypes="cc" />
  <path
     sodipodi:type="arc"
     style="color:#000000;fill:#fefefe;fill-opacity:1;stroke:#000000;stroke-width:25;stroke-linecap:round;stroke-linejoin:round;stroke-miterlimit:10;stroke-opacity:1;stroke-dasharray:none;stroke-dashoffset:0;marker:none;visibility:visible;display:inline;overflow:visible;enable-background:accumulate"
     id="path3759-1"
     sodipodi:cx="210.27438"
     sodipodi:cy="76.036606"
     sodipodi:rx="40.838413"
     sodipodi:ry="40.838413"
     d="m 251.1128,76.036606 a 40.838413,40.838413 0 1 1 -81.67683,0 40.838413,40.838413 0 1 1 81.67683,0 z"
     transform="matrix(0.82289092,0,0,0.82289092,110.16458,453.8318)" />
  <path
     style="opacity:0.772;fill:none;stroke:#000000;stroke-width:20;stroke-linecap:butt;stroke-linejoin:round;stroke-miterlimit:4;stroke-opacity:1;stroke-dasharray:none"
     d="m 226.97924,512.34825 0,-282.83165 112.43644,0 0,285.25732"
     id="path2987"
     inkscape:connector-curvature="0" />
</svg>

<svg width="580" height="580" viewBox="0 0 580 580" fill="none" xmlns="http://www.w3.org/2000/svg">
<g clip-path="url(#clip0)">
<path opacity="0.426087" d="M226.969 198.313C228.275 198.312 214.293 201.125 215.5 200.625C216.707 200.125 204.857 208.049 205.781 207.125C206.705 206.201 198.781 218.051 199.281 216.844C199.781 215.637 196.969 229.619 196.969 228.312V484H189.625C184.388 483.997 179.182 486.151 175.479 489.854C171.776 493.557 169.622 498.763 169.625 504V529C169.622 534.237 171.776 539.443 175.479 543.146C179.182 546.849 184.388 549.003 189.625 549H228.594C239.806 567.638 260.053 580.219 283.188 580.219C306.322 580.219 326.591 567.643 337.812 549H376.75C381.987 549.003 387.193 546.849 390.896 543.146C394.599 539.443 396.753 534.237 396.75 529V504C396.753 498.763 394.599 493.557 390.896 489.854C387.193 486.151 381.987 483.997 376.75 484H369.406V228.312C369.406 229.619 366.594 215.637 367.094 216.844C367.594 218.051 359.67 206.201 360.594 207.125C361.518 208.049 349.668 200.125 350.875 200.625C352.082 201.125 338.1 198.312 339.406 198.313H226.969Z" fill="#ACD8F3"/>
<path d="M329.748 236.992H236.559V512.968H329.748V236.992Z" fill="#BDBDBD"/>
<path d="M189.636 516.57H376.758" stroke="black" stroke-width="25"/>
<path d="M316.803 516.402C316.803 525.314 313.262 533.862 306.96 540.164C300.658 546.467 292.11 550.007 283.197 550.007C274.285 550.007 265.737 546.467 259.435 540.164C253.132 533.862 249.592 525.314 249.592 516.402C249.592 507.489 253.132 498.941 259.435 492.639C265.737 486.337 274.285 482.796 283.197 482.796C292.11 482.796 300.658 486.337 306.96 492.639C313.262 498.941 316.803 507.489 316.803 516.402V516.402Z" fill="#FEFEFE" stroke="black" stroke-width="20.5723" stroke-miterlimit="10" stroke-linecap="round" stroke-linejoin="round"/>
<path opacity="0.772" d="M226.979 512.348V229.517H339.416V514.774" stroke="black" stroke-width="20" stroke-linejoin="round"/>
</g>
<defs>
<clipPath id="clip0">
<path d="M0 0H580V580H0V0Z" fill="white"/>
</clipPath>
</defs>
</svg>
